icons/modern/call-me-hand.svg

<svg width="32" height="32" viewBox="0 0 32 32" fill="none" xmlns="http://www.w3.org/2000/svg">
<g filter="url(#filter0_i_20020_2615)">
<path d="M17.9797 10.4196C21.1972 12.2461 23.3789 15.7662 23.3789 19.6931C23.3789 21.2964 23.0153 22.805 22.3659 24.1463H26.5352C28.1359 24.1463 29.4336 25.4439 29.4336 27.0447C29.4336 28.6455 28.1359 29.9431 26.5352 29.9431H17.082L17.0704 29.9431H14.0664C13.8434 29.9431 13.63 29.9403 13.4261 29.9349C13.286 29.9404 13.1453 29.9431 13.0039 29.9431C6.06641 29.9431 2.56641 25.3919 2.56641 19.6619C2.56641 15.3775 5.19836 11.5948 8.92172 9.95888C8.93323 9.9525 8.94501 9.94597 8.95703 9.93924C10.3945 9.33377 13.2198 7.13495 15.6289 3.43535C16.8321 1.88846 18.653 1.67148 19.9246 2.64383C21.1962 3.61617 21.3086 5.42752 20.5117 6.71659C19.9659 7.59957 18.5826 9.56743 17.9797 10.4196Z" fill="url(#paint0_linear_20020_2615)"/>
<path d="M17.9797 10.4196C21.1972 12.2461 23.3789 15.7662 23.3789 19.6931C23.3789 21.2964 23.0153 22.805 22.3659 24.1463H26.5352C28.1359 24.1463 29.4336 25.4439 29.4336 27.0447C29.4336 28.6455 28.1359 29.9431 26.5352 29.9431H17.082L17.0704 29.9431H14.0664C13.8434 29.9431 13.63 29.9403 13.4261 29.9349C13.286 29.9404 13.1453 29.9431 13.0039 29.9431C6.06641 29.9431 2.56641 25.3919 2.56641 19.6619C2.56641 15.3775 5.19836 11.5948 8.92172 9.95888C8.93323 9.9525 8.94501 9.94597 8.95703 9.93924C10.3945 9.33377 13.2198 7.13495 15.6289 3.43535C16.8321 1.88846 18.653 1.67148 19.9246 2.64383C21.1962 3.61617 21.3086 5.42752 20.5117 6.71659C19.9659 7.59957 18.5826 9.56743 17.9797 10.4196Z" fill="url(#paint1_radial_20020_2615)"/>
</g>
<g filter="url(#filter1_f_20020_2615)">
<path d="M14.6602 14.7153C14.6602 13.276 15.7293 12.1093 17.0481 12.1093H20.5222C21.841 12.1093 22.9102 13.276 22.9102 14.7153C22.9102 15.6567 22.4528 16.4815 21.7674 16.9395C22.4504 17.3691 22.9102 18.174 22.9102 19.0961C22.9102 20.0297 22.4388 20.8432 21.7416 21.2686C22.4409 21.718 22.9102 22.5481 22.9102 23.4978C22.9102 24.2474 22.7655 25.3724 21.5719 25.6487L17.0289 26.0829C15.7207 26.0829 14.6602 24.9255 14.6602 23.4978C14.6602 22.5481 15.1294 21.718 15.8287 21.2686C15.1315 20.8432 14.6602 20.0297 14.6602 19.0961C14.6602 18.174 15.1199 17.3691 15.8029 16.9395C15.1175 16.4815 14.6602 15.6567 14.6602 14.7153Z" fill="url(#paint2_radial_20020_2615)"/>
</g>
<rect x="14.1836" y="24.1462" width="15.25" height="5.79688" rx="2.89844" fill="url(#paint3_radial_20020_2615)"/>
<rect x="14.1836" y="24.1462" width="15.25" height="5.79688" rx="2.89844" fill="url(#paint4_radial_20020_2615)"/>
<rect x="15.4987" y="9.56812" width="10.0884" height="5.82812" rx="2.91406" fill="url(#paint5_radial_20020_2615)"/>
<rect x="15.4987" y="9.56812" width="10.0884" height="5.82812" rx="2.91406" fill="url(#paint6_linear_20020_2615)"/>
<rect x="15.4987" y="19.4119" width="10.0884" height="5.78125" rx="2.89062" fill="url(#paint7_radial_20020_2615)"/>
<rect x="15.4987" y="19.4119" width="10.0884" height="5.78125" rx="2.89062" fill="url(#paint8_linear_20020_2615)"/>
<rect x="15.4987" y="19.4119" width="10.0884" height="5.78125" rx="2.89062" fill="url(#paint9_radial_20020_2615)"/>
<g filter="url(#filter2_f_20020_2615)">
<rect x="17.1815" y="14.4509" width="6.81457" height="0.6875" rx="0.34375" fill="#C26B04"/>
</g>
<g filter="url(#filter3_f_20020_2615)">
<rect x="17.1815" y="19.622" width="6.81457" height="0.6875" rx="0.34375" fill="#C26B04"/>
</g>
<rect x="15.4987" y="14.5994" width="10.0884" height="5.5625" rx="2.78125" fill="url(#paint10_radial_20020_2615)"/>
<rect x="15.4987" y="14.5994" width="10.0884" height="5.5625" rx="2.78125" fill="url(#paint11_linear_20020_2615)"/>
<rect x="15.4987" y="14.5994" width="10.0884" height="5.5625" rx="2.78125" fill="url(#paint12_radial_20020_2615)"/>
<path d="M10.6614 14.7581C9.60282 13.9487 8.23524 12.0477 8.36756 10.6998C8.41836 10.1824 8.5033 10.1931 8.95703 9.93924C10.3945 9.33377 13.2199 7.13495 15.6289 3.43535C16.8321 1.88846 18.653 1.67148 19.9246 2.64383C21.1962 3.61617 21.3086 5.42753 20.5117 6.71659C19.8045 7.86064 17.6914 10.826 17.6914 10.826L14.7244 14.2162C13.752 15.4878 11.933 15.7304 10.6614 14.7581Z" fill="url(#paint13_radial_20020_2615)"/>
<path d="M10.6614 14.7581C9.60282 13.9487 8.23524 12.0477 8.36756 10.6998C8.41836 10.1824 8.5033 10.1931 8.95703 9.93924C10.3945 9.33377 13.2199 7.13495 15.6289 3.43535C16.8321 1.88846 18.653 1.67148 19.9246 2.64383C21.1962 3.61617 21.3086 5.42753 20.5117 6.71659C19.8045 7.86064 17.6914 10.826 17.6914 10.826L14.7244 14.2162C13.752 15.4878 11.933 15.7304 10.6614 14.7581Z" fill="url(#paint14_radial_20020_2615)"/>
<defs>
<filter id="filter0_i_20020_2615" x="2.56641" y="1.30688" width="27.6172" height="28.6363" filterUnits="userSpaceOnUse" color-interpolation-filters="sRGB">
<feFlood flood-opacity="0" result="BackgroundImageFix"/>
<feBlend mode="normal" in="SourceGraphic" in2="BackgroundImageFix" result="shape"/>
<feColorMatrix in="SourceAlpha" type="matrix" values="0 0 0 0 0 0 0 0 0 0 0 0 0 0 0 0 0 0 127 0" result="hardAlpha"/>
<feOffset dx="0.75" dy="-0.75"/>
<feGaussianBlur stdDeviation="1"/>
<feComposite in2="hardAlpha" operator="arithmetic" k2="-1" k3="1"/>
<feColorMatrix type="matrix" values="0 0 0 0 0.898039 0 0 0 0 0.470588 0 0 0 0 0.364706 0 0 0 1 0"/>
<feBlend mode="normal" in2="shape" result="effect1_innerShadow_20020_2615"/>
</filter>
<filter id="filter1_f_20020_2615" x="13.1602" y="10.6093" width="11.25" height="16.9737" filterUnits="userSpaceOnUse" color-interpolation-filters="sRGB">
<feFlood flood-opacity="0" result="BackgroundImageFix"/>
<feBlend mode="normal" in="SourceGraphic" in2="BackgroundImageFix" result="shape"/>
<feGaussianBlur stdDeviation="0.75" result="effect1_foregroundBlur_20020_2615"/>
</filter>
<filter id="filter2_f_20020_2615" x="16.4315" y="13.7009" width="8.31458" height="2.1875" filterUnits="userSpaceOnUse" color-interpolation-filters="sRGB">
<feFlood flood-opacity="0" result="BackgroundImageFix"/>
<feBlend mode="normal" in="SourceGraphic" in2="BackgroundImageFix" result="shape"/>
<feGaussianBlur stdDeviation="0.375" result="effect1_foregroundBlur_20020_2615"/>
</filter>
<filter id="filter3_f_20020_2615" x="16.4315" y="18.872" width="8.31458" height="2.1875" filterUnits="userSpaceOnUse" color-interpolation-filters="sRGB">
<feFlood flood-opacity="0" result="BackgroundImageFix"/>
<feBlend mode="normal" in="SourceGraphic" in2="BackgroundImageFix" result="shape"/>
<feGaussianBlur stdDeviation="0.375" result="effect1_foregroundBlur_20020_2615"/>
</filter>
<linearGradient id="paint0_linear_20020_2615" x1="14.3444" y1="31.333" x2="30.6075" y2="11.833" gradientUnits="userSpaceOnUse">
<stop stop-color="#FDB033"/>
<stop offset="1" stop-color="#FFCB25"/>
</linearGradient>
<radialGradient id="paint1_radial_20020_2615" cx="0" cy="0" r="1" gradientUnits="userSpaceOnUse" gradientTransform="translate(7.63383 11.0435) scale(8.64474 4.57895)">
<stop stop-color="#FFD337"/>
<stop offset="1" stop-color="#FFC42A" stop-opacity="0"/>
</radialGradient>
<radialGradient id="paint2_radial_20020_2615" cx="0" cy="0" r="1" gradientUnits="userSpaceOnUse" gradientTransform="translate(15.696 24.5958) rotate(-56.9218) scale(8.5892 7.14806)">
<stop stop-color="#E47938"/>
<stop offset="1" stop-color="#A95A0C"/>
</radialGradient>
<radialGradient id="paint3_radial_20020_2615" cx="0" cy="0" r="1" gradientUnits="userSpaceOnUse" gradientTransform="translate(28.1601 26.3592) rotate(180) scale(10.1053 1.65789)">
<stop stop-color="#FFD230"/>
<stop offset="1" stop-color="#FFD230" stop-opacity="0"/>
</radialGradient>
<radialGradient id="paint4_radial_20020_2615" cx="0" cy="0" r="1" gradientUnits="userSpaceOnUse" gradientTransform="translate(29.1075 25.6487) rotate(149.897) scale(2.78329 3.32669)">
<stop stop-color="#FFEA4A"/>
<stop offset="1" stop-color="#FFEA4A" stop-opacity="0"/>
</radialGradient>
<radialGradient id="paint5_radial_20020_2615" cx="0" cy="0" r="1" gradientUnits="userSpaceOnUse" gradientTransform="translate(23.7852 11.8494) rotate(180) scale(5.875 2.84274)">
<stop stop-color="#FFE949"/>
<stop offset="1" stop-color="#FFBE3E"/>
</radialGradient>
<linearGradient id="paint6_linear_20020_2615" x1="14.8947" y1="13.2933" x2="19.225" y2="13.2933" gradientUnits="userSpaceOnUse">
<stop stop-color="#E08C16"/>
<stop offset="1" stop-color="#E08C16" stop-opacity="0"/>
</linearGradient>
<radialGradient id="paint7_radial_20020_2615" cx="0" cy="0" r="1" gradientUnits="userSpaceOnUse" gradientTransform="translate(23.7852 21.6748) rotate(180) scale(5.875 2.81988)">
<stop stop-color="#FFE949"/>
<stop offset="1" stop-color="#FFBE3E"/>
</radialGradient>
<linearGradient id="paint8_linear_20020_2615" x1="14.8947" y1="23.1071" x2="19.225" y2="23.1071" gradientUnits="userSpaceOnUse">
<stop stop-color="#E08C16"/>
<stop offset="1" stop-color="#E08C16" stop-opacity="0"/>
</linearGradient>
<radialGradient id="paint9_radial_20020_2615" cx="0" cy="0" r="1" gradientUnits="userSpaceOnUse" gradientTransform="translate(17.4221 25.3037) scale(6.56347 1.84498)">
<stop stop-color="#F27C5B"/>
<stop offset="1" stop-color="#F27C5B" stop-opacity="0"/>
</radialGradient>
<radialGradient id="paint10_radial_20020_2615" cx="0" cy="0" r="1" gradientUnits="userSpaceOnUse" gradientTransform="translate(23.7852 16.7766) rotate(180) scale(5.875 2.71318)">
<stop stop-color="#FFE949"/>
<stop offset="1" stop-color="#FFBE3E"/>
</radialGradient>
<linearGradient id="paint11_linear_20020_2615" x1="15.4987" y1="17.9908" x2="19.1601" y2="17.9908" gradientUnits="userSpaceOnUse">
<stop stop-color="#E08C16"/>
<stop offset="1" stop-color="#E08C16" stop-opacity="0"/>
</linearGradient>
<radialGradient id="paint12_radial_20020_2615" cx="0" cy="0" r="1" gradientUnits="userSpaceOnUse" gradientTransform="translate(17.4221 20.2683) scale(6.56347 1.39474)">
<stop stop-color="#E9842F"/>
<stop offset="1" stop-color="#E9842F" stop-opacity="0"/>
</radialGradient>
<radialGradient id="paint13_radial_20020_2615" cx="0" cy="0" r="1" gradientUnits="userSpaceOnUse" gradientTransform="translate(12.9727 6.38065) rotate(44.029) scale(2.60783 7.54039)">
<stop stop-color="#D6983B"/>
<stop offset="0.858415" stop-color="#D6983B" stop-opacity="0"/>
</radialGradient>
<radialGradient id="paint14_radial_20020_2615" cx="0" cy="0" r="1" gradientUnits="userSpaceOnUse" gradientTransform="translate(21.0162 3.06815) rotate(143.588) scale(4.0537 4.18537)">
<stop stop-color="#FFEA4A"/>
<stop offset="1" stop-color="#FFEA4A" stop-opacity="0"/>
</radialGradient>
</defs>
</svg>

<svg width="32" height="32" fill="none" xmlns="http://www.w3.org/2000/svg"><g filter="url(#a)"><path d="M17.98 10.42c3.217 1.826 5.399 5.346 5.399 9.273 0 1.603-.364 3.112-1.013 4.453h4.17a2.898 2.898 0 1 1 0 5.797h-12.47c-.223 0-.436-.003-.64-.008-.14.005-.28.008-.422.008-6.938 0-10.438-4.551-10.438-10.281 0-4.284 2.632-8.067 6.356-9.703l.035-.02c1.438-.605 4.263-2.804 6.672-6.504 1.203-1.547 3.024-1.764 4.296-.791 1.271.972 1.384 2.784.587 4.073-.546.883-1.93 2.85-2.532 3.703Z" fill="url(#b)"/><path d="M17.98 10.42c3.217 1.826 5.399 5.346 5.399 9.273 0 1.603-.364 3.112-1.013 4.453h4.17a2.898 2.898 0 1 1 0 5.797h-12.47c-.223 0-.436-.003-.64-.008-.14.005-.28.008-.422.008-6.938 0-10.438-4.551-10.438-10.281 0-4.284 2.632-8.067 6.356-9.703l.035-.02c1.438-.605 4.263-2.804 6.672-6.504 1.203-1.547 3.024-1.764 4.296-.791 1.271.972 1.384 2.784.587 4.073-.546.883-1.93 2.85-2.532 3.703Z" fill="url(#c)"/></g><g filter="url(#d)"><path d="M14.66 14.715c0-1.439 1.07-2.606 2.388-2.606h3.474c1.319 0 2.388 1.167 2.388 2.606 0 .942-.457 1.767-1.143 2.224.683.43 1.143 1.235 1.143 2.157 0 .934-.471 1.747-1.168 2.173.699.449 1.168 1.28 1.168 2.229 0 .75-.145 1.874-1.338 2.15l-4.543.435c-1.308 0-2.369-1.157-2.369-2.585 0-.95.47-1.78 1.169-2.23-.697-.425-1.169-1.238-1.169-2.172 0-.922.46-1.727 1.143-2.157-.686-.457-1.143-1.282-1.143-2.224Z" fill="url(#e)"/></g><rect x="14.184" y="24.146" width="15.25" height="5.797" rx="2.898" fill="url(#f)"/><rect x="14.184" y="24.146" width="15.25" height="5.797" rx="2.898" fill="url(#g)"/><rect x="15.499" y="9.568" width="10.088" height="5.828" rx="2.914" fill="url(#h)"/><rect x="15.499" y="9.568" width="10.088" height="5.828" rx="2.914" fill="url(#i)"/><rect x="15.499" y="19.412" width="10.088" height="5.781" rx="2.891" fill="url(#j)"/><rect x="15.499" y="19.412" width="10.088" height="5.781" rx="2.891" fill="url(#k)"/><rect x="15.499" y="19.412" width="10.088" height="5.781" rx="2.891" fill="url(#l)"/><g filter="url(#m)"><rect x="17.181" y="14.451" width="6.815" height=".688" rx=".344" fill="#C26B04"/></g><g filter="url(#n)"><rect x="17.181" y="19.622" width="6.815" height=".688" rx=".344" fill="#C26B04"/></g><rect x="15.499" y="14.599" width="10.088" height="5.563" rx="2.781" fill="url(#o)"/><rect x="15.499" y="14.599" width="10.088" height="5.563" rx="2.781" fill="url(#p)"/><rect x="15.499" y="14.599" width="10.088" height="5.563" rx="2.781" fill="url(#q)"/><path d="M10.661 14.758c-1.058-.81-2.426-2.71-2.293-4.058.05-.518.135-.507.589-.76 1.438-.606 4.263-2.805 6.672-6.505 1.203-1.547 3.024-1.764 4.296-.791 1.271.972 1.384 2.784.587 4.073-.707 1.144-2.82 4.109-2.82 4.109l-2.968 3.39a2.898 2.898 0 0 1-4.063.542Z" fill="url(#r)"/><path d="M10.661 14.758c-1.058-.81-2.426-2.71-2.293-4.058.05-.518.135-.507.589-.76 1.438-.606 4.263-2.805 6.672-6.505 1.203-1.547 3.024-1.764 4.296-.791 1.271.972 1.384 2.784.587 4.073-.707 1.144-2.82 4.109-2.82 4.109l-2.968 3.39a2.898 2.898 0 0 1-4.063.542Z" fill="url(#s)"/><defs><radialGradient id="c" cx="0" cy="0" r="1" gradientUnits="userSpaceOnUse" gradientTransform="matrix(8.64474 0 0 4.57895 7.634 11.043)"><stop stop-color="#FFD337"/><stop offset="1" stop-color="#FFC42A" stop-opacity="0"/></radialGradient><radialGradient id="e" cx="0" cy="0" r="1" gradientUnits="userSpaceOnUse" gradientTransform="rotate(-56.922 30.535 -2.18) scale(8.5892 7.14806)"><stop stop-color="#E47938"/><stop offset="1" stop-color="#A95A0C"/></radialGradient><radialGradient id="f" cx="0" cy="0" r="1" gradientUnits="userSpaceOnUse" gradientTransform="matrix(-10.1053 0 0 -1.65789 28.16 26.36)"><stop stop-color="#FFD230"/><stop offset="1" stop-color="#FFD230" stop-opacity="0"/></radialGradient><radialGradient id="g" cx="0" cy="0" r="1" gradientUnits="userSpaceOnUse" gradientTransform="rotate(149.897 11.105 16.738) scale(2.78329 3.32669)"><stop stop-color="#FFEA4A"/><stop offset="1" stop-color="#FFEA4A" stop-opacity="0"/></radialGradient><radialGradient id="h" cx="0" cy="0" r="1" gradientUnits="userSpaceOnUse" gradientTransform="matrix(-5.875 0 0 -2.84274 23.785 11.85)"><stop stop-color="#FFE949"/><stop offset="1" stop-color="#FFBE3E"/></radialGradient><radialGradient id="j" cx="0" cy="0" r="1" gradientUnits="userSpaceOnUse" gradientTransform="matrix(-5.875 0 0 -2.81988 23.785 21.675)"><stop stop-color="#FFE949"/><stop offset="1" stop-color="#FFBE3E"/></radialGradient><radialGradient id="l" cx="0" cy="0" r="1" gradientUnits="userSpaceOnUse" gradientTransform="matrix(6.56347 0 0 1.84498 17.422 25.304)"><stop stop-color="#F27C5B"/><stop offset="1" stop-color="#F27C5B" stop-opacity="0"/></radialGradient><radialGradient id="o" cx="0" cy="0" r="1" gradientUnits="userSpaceOnUse" gradientTransform="matrix(-5.875 0 0 -2.71318 23.785 16.777)"><stop stop-color="#FFE949"/><stop offset="1" stop-color="#FFBE3E"/></radialGradient><radialGradient id="q" cx="0" cy="0" r="1" gradientUnits="userSpaceOnUse" gradientTransform="matrix(6.56347 0 0 1.39474 17.422 20.268)"><stop stop-color="#E9842F"/><stop offset="1" stop-color="#E9842F" stop-opacity="0"/></radialGradient><radialGradient id="r" cx="0" cy="0" r="1" gradientUnits="userSpaceOnUse" gradientTransform="matrix(1.875 1.8125 -5.24074 5.42145 12.973 6.38)"><stop stop-color="#D6983B"/><stop offset=".858" stop-color="#D6983B" stop-opacity="0"/></radialGradient><radialGradient id="s" cx="0" cy="0" r="1" gradientUnits="userSpaceOnUse" gradientTransform="rotate(143.588 10.004 4.99) scale(4.0537 4.18537)"><stop stop-color="#FFEA4A"/><stop offset="1" stop-color="#FFEA4A" stop-opacity="0"/></radialGradient><linearGradient id="b" x1="14.344" y1="31.333" x2="30.608" y2="11.833" gradientUnits="userSpaceOnUse"><stop stop-color="#FDB033"/><stop offset="1" stop-color="#FFCB25"/></linearGradient><linearGradient id="i" x1="14.895" y1="13.293" x2="19.225" y2="13.293" gradientUnits="userSpaceOnUse"><stop stop-color="#E08C16"/><stop offset="1" stop-color="#E08C16" stop-opacity="0"/></linearGradient><linearGradient id="k" x1="14.895" y1="23.107" x2="19.225" y2="23.107" gradientUnits="userSpaceOnUse"><stop stop-color="#E08C16"/><stop offset="1" stop-color="#E08C16" stop-opacity="0"/></linearGradient><linearGradient id="p" x1="15.499" y1="17.991" x2="19.16" y2="17.991" gradientUnits="userSpaceOnUse"><stop stop-color="#E08C16"/><stop offset="1" stop-color="#E08C16" stop-opacity="0"/></linearGradient><filter id="a" x="2.566" y="1.307" width="27.617" height="28.636" filterUnits="userSpaceOnUse" color-interpolation-filters="sRGB"><feFlood flood-opacity="0" result="BackgroundImageFix"/><feBlend in="SourceGraphic" in2="BackgroundImageFix" result="shape"/><feColorMatrix in="SourceAlpha" values="0 0 0 0 0 0 0 0 0 0 0 0 0 0 0 0 0 0 127 0" result="hardAlpha"/><feOffset dx=".75" dy="-.75"/><feGaussianBlur stdDeviation="1"/><feComposite in2="hardAlpha" operator="arithmetic" k2="-1" k3="1"/><feColorMatrix values="0 0 0 0 0.898039 0 0 0 0 0.470588 0 0 0 0 0.364706 0 0 0 1 0"/><feBlend in2="shape" result="effect1_innerShadow_20020_2615"/></filter><filter id="d" x="13.16" y="10.609" width="11.25" height="16.974" filterUnits="userSpaceOnUse" color-interpolation-filters="sRGB"><feFlood flood-opacity="0" result="BackgroundImageFix"/><feBlend in="SourceGraphic" in2="BackgroundImageFix" result="shape"/><feGaussianBlur stdDeviation=".75" result="effect1_foregroundBlur_20020_2615"/></filter><filter id="m" x="16.431" y="13.701" width="8.315" height="2.188" filterUnits="userSpaceOnUse" color-interpolation-filters="sRGB"><feFlood flood-opacity="0" result="BackgroundImageFix"/><feBlend in="SourceGraphic" in2="BackgroundImageFix" result="shape"/><feGaussianBlur stdDeviation=".375" result="effect1_foregroundBlur_20020_2615"/></filter><filter id="n" x="16.431" y="18.872" width="8.315" height="2.188" filterUnits="userSpaceOnUse" color-interpolation-filters="sRGB"><feFlood flood-opacity="0" result="BackgroundImageFix"/><feBlend in="SourceGraphic" in2="BackgroundImageFix" result="shape"/><feGaussianBlur stdDeviation=".375" result="effect1_foregroundBlur_20020_2615"/></filter></defs></svg>
